X:1
T:Title
%%score { ( 1 3 ) | ( 2 4 5 ) }
L:1/8
M:4/4
K:F
V:1 treble nm="Grand Piano"
V:3 treble 
V:2 bass 
V:4 bass 
V:5 bass 
V:1
 z4 z2[Q:1/4=100] [A,F]2 | [B,FG]2 [C_EA]2 [CDA]2 [B,G]F | E6 [Cc]2 | %3
 [DB]2 [A,_EA]2 .[B,DG]2 [C^FA]2 | [B,G]6 [B,EB]2 | .[FA]2 [DG]2 [A,CF]2 [CE]2 | z2 .D2 z2 [Gc]2 | %7
 [Ff]2 [A,FA]2 [DFG]2 .[CEG]2 |[M:7/4] [A,F]6 z2 z2 z4 |[M:4/4] [DFB]4 [CFA]4 |] %10
V:2
 z4 z2 F,2 | F,2 F,2 B,,2 z A, | [C,G,C]6 [A,,F,]2 | F,G, C,2 z E D,2 | G,6 G,,2 | %5
 z E z B, z2 z B,, | z E .[B,,F,]2 [F,A,]2 .[E,G,]2 | CB, C,2 B,,2 z B, |[M:7/4] F,6 z2 z2 z4 | %9
[M:4/4] B,,4 F,4 |] %10
V:3
 x8 | z4 z2 D2 | x8 | x8 | x8 | C4 z4 | [F,F]2 d-[G,Ed] [Fc]2 z A, | x8 |[M:7/4] x14 |[M:4/4] x8 |] %10
V:4
 x8 | z4 z2 B,,2 | x8 | B,,2 z2 D,2 z2 | x8 | z4 z2 G,2 | A,,2 z2 z4 | D,2 z2 z2 C,2 |[M:7/4] x14 | %9
[M:4/4] x8 |] %10
V:5
 x8 | x8 | x8 | x8 | x8 | A,,2 B,,2 C,4 | x8 | x8 |[M:7/4] x14 |[M:4/4] x8 |] %10

